svgs/light/shredder.svg

<svg xmlns="http://www.w3.org/2000/svg" viewBox="0 0 512 512"><!-- Font Awesome Pro 6.0.0-alpha2 by @fontawesome - https://fontawesome.com License - https://fontawesome.com/license (Commercial License) --><path d="M208 352C199.156 352 192 359.156 192 368V496C192 504.844 199.156 512 208 512S224 504.844 224 496V368C224 359.156 216.844 352 208 352ZM304 352C295.156 352 288 359.156 288 368V496C288 504.844 295.156 512 304 512S320 504.844 320 496V368C320 359.156 312.844 352 304 352ZM112 352C103.156 352 96 359.156 96 368V496C96 504.844 103.156 512 112 512S128 504.844 128 496V368C128 359.156 120.844 352 112 352ZM448 192V70.633C448 62.145 444.627 54.002 438.625 48L400 9.375C393.998 3.371 385.855 0 377.367 0H128C92.654 0 64 28.652 64 64V192C28.703 192 0 220.703 0 256V368C0 376.844 7.156 384 16 384S32 376.844 32 368V256C32 238.326 46.326 224 64 224H448C465.674 224 480 238.326 480 256V368C480 376.844 487.156 384 496 384S512 376.844 512 368V256C512 220.703 483.297 192 448 192ZM416 192H96V64C96 46.326 110.326 32 128 32H377.375L416 70.625V192ZM400 352C391.156 352 384 359.156 384 368V496C384 504.844 391.156 512 400 512S416 504.844 416 496V368C416 359.156 408.844 352 400 352ZM432 248C418.746 248 408 258.744 408 272C408 285.254 418.746 296 432 296S456 285.254 456 272C456 258.744 445.254 248 432 248Z"/></svg>

<svg xmlns="http://www.w3.org/2000/svg" viewBox="0 0 512 512"><!--! Font Awesome Pro 6.3.0 by @fontawesome - https://fontawesome.com License - https://fontawesome.com/license (Commercial License) Copyright 2023 Fonticons, Inc. --><path d="M208 352C199.2 352 192 359.2 192 368v128C192 504.8 199.2 512 208 512S224 504.8 224 496v-128C224 359.2 216.8 352 208 352zM304 352c-8.844 0-16 7.156-16 16v128c0 8.844 7.156 16 16 16s16-7.156 16-16v-128C320 359.2 312.8 352 304 352zM112 352C103.2 352 96 359.2 96 368v128C96 504.8 103.2 512 112 512S128 504.8 128 496v-128C128 359.2 120.8 352 112 352zM448 192V70.63C448 62.14 444.6 54 438.6 48L400 9.375C393.1 3.371 385.9 0 377.4 0H128C92.65 0 64 28.65 64 64v128C28.7 192 0 220.7 0 256v112C0 376.8 7.156 384 16 384S32 376.8 32 368V256c0-17.67 14.33-32 32-32h384c17.67 0 32 14.33 32 32v112c0 8.844 7.156 16 16 16s16-7.156 16-16V256C512 220.7 483.3 192 448 192zM416 192H96V64c0-17.67 14.33-32 32-32h249.4L416 70.63V192zM400 352c-8.844 0-16 7.156-16 16v128c0 8.844 7.156 16 16 16s16-7.156 16-16v-128C416 359.2 408.8 352 400 352zM432 248c-13.25 0-24 10.74-24 24c0 13.25 10.75 24 24 24s24-10.75 24-24C456 258.7 445.3 248 432 248z"/></svg>
